!!!OTL: Lied der Floesser vom Rotmain Lustig ist das Floesserleben,
!!!ARE: Europa, Mitteleuropa, Deutschland, Oberfranken
!!!SCT: D0143
!!!YEM: Copyright 1995, estate of Helmut Schaffrath.
**kern
*ICvox
*Ivox
!! Mixed meters:  4/8; 2/8
*M4/8
*k[f#]
*G:
=1
{8g
8g
8g
8g
=2
8g
8e
8d
8d
=3
8g
8e
8d
8d}
=4
{8g
8a
8b
8b
=5
8a
8a
4g}
=6
{8g
8a
8b
8b
=7
8a
8a
8g}
{8d
=8
8g
8g
8g
8g
=9
8g
8e
4d
=10
8g
8e
4d}
=11
{8g
8a
8b
8b
=12
8a
8a
4g}
=13
{8g
8a
8b
8b
=14
8a
8a
4g
=15
*M2/8
8r}
{16g
16a
=16
*M4/8
8.b
16b
8b
16a
16b
=17
8cc
8a
8cc
8a
=18
*M2/8
8r}
{16a
16b
=19
*M4/8
8.cc
16cc
8cc
16b
16cc
=20
8dd
8b
8dd
8b}
=21
*M2/8
{4d
=22
*M4/8
8g
8g
8g
8g
=23
8g
8e
4d
=24
8g
8e
4d}
=25
{8g
8a
8b
8b
=26
8a
8a
4g}
=27
{8g
8a
8b
8b
=28
8a
8a
4g}
=29
*M2/8
{4dd
=30
*M4/8
16b
16b
16b
16cc
4dd
=31
16b
16b
16b
16cc
4dd}
=32
{8dd
8cc
8cc
8cc
=33
8ee
8dd
8dd}
{8dd
=34
16b
16b
16b
16cc
4dd
=35
16b
16b
16b
16cc
4dd}
=36
{8dd
8cc
8cc
8cc
=37
4b}
==
!!!AGN: Staende - Lied
!! Wechselgesang solo - Gruppe; Sequenzen; In der fuenften Zeile
!!    rhythmisch korrigiert; Inzipit = Variante zum Lied
!!!ONB: ESAC (Essen Associative Code) Database: DVA
!!!AMT: irregular
!!!AIN: vox
!!!EED: Helmut Schaffrath
!!!EEV: 1.0
*-
